app/dist/common/images/xtek-limited.svg

<svg height="18" viewBox="0 0 18 18" width="18" xmlns="http://www.w3.org/2000/svg"><path d="m0 0h18v18h-18z" fill="#f0f3fa"/><g fill="#414143"><path d="m6 4h6v2h-2v1.5l-1 1-1-1v-1.5h-2z"/><path d="m6 6.5v1.5l1.4 1.4.9-.9-.8-.8v-1.2zm1.4 3.92-3.4 3.58h3.5v-1.7l.88-.99zm.6 3.58h2v-1.5l-1-1-1 1zm2.5 0h3.5l-3.5-3.5-.8.81.8.98zm.1-4.6 1.4-1.4v-1.5h-1.5v1.2l-.8.8zm-2.6.6 1-1 1 1-1 1z"/></g></svg>

<!-- by TradingView --><svg width="18" height="18" viewBox="0 0 18 18" xmlns="http://www.w3.org/2000/svg"><path fill="#F0F3FA" d="M0 0h18v18H0z"/><path d="M6 4h6v2h-2v1.5l-1 1-1-1V6H6V4Z" fill="#414143"/><path d="M6 6.5V8l1.4 1.4.9-.9-.8-.8V6.5H6ZM7.4 10.42 4 14h3.5v-1.7l.88-.99-.98-.89ZM8 14h2v-1.5l-1-1-1 1V14ZM10.5 14H14l-3.5-3.5-.8.81.8.98V14ZM10.6 9.4 12 8V6.5h-1.5v1.2l-.8.8.9.9ZM8 10l1-1 1 1-1 1-1-1Z" fill="#414143"/></svg>
